!!!OTL: 1451. Waldeinsamkeit.
!!!ODT: 1880
!!!ARE: Europa, Mitteleuropa, Deutschland, Hessen, Taunus
!!!SCT: E1451A
!!!TXL: @@DE
!!!YEM: Copyright 1995, estate of Helmut Schaffrath.
**kern	**text
*ICvox	*
*M4/4	*
*met(c)	*
*k[f#]	*
*G:	*
=1	=1
!LO:TX:a:t=Munter.	!
!LO:TX:a:t=Aus dem Taunus. 1880.	!
{4.g	Was
8a	kann
4b	mich
4dd	denn
=2	=2
4a	mehr
8bL	er-
8aJ	.
4g	-gö-
8gL	-tʒen,
8aJ}	.
=3	=3
{4.b	als
8cc	ein
4dd	ſchö-
4ee	-ner,
=4	=4
4cc	grü-
8ddL	-ner
8ccJ	.
2b}	Wald,
=5	=5
{4.g	Wo
8a	die
4b	Vög-
4dd	-lein
=6	=6
4a	lieb-
8bL	-lich
8aJ	.
4g	ſin-
8gL	-gen
8aJ}	.
=7	=7
{4.b	und
8cc	die
4dd	An-
4ee	-na
=8	=8
4cc	ſich
8ddL	auf-
8ccJ	.
2b}	-hält!
=9	=9
{4dd	Fort
4dd	mit
4ee	dir,
8eeL	mein
8ddJ	.
=10	=10
4cc	Blu-
8ccL	-men-
8eeJ	.
2dd}	-feld!
=11	=11
{4b	Der
8bL	Wald
8ddJ	.
2cc	iſt,
=12	=12
4b	der
4b	Wald
2a}	iſt,
=13	=13
{4b	der
4b	Wald
4cc	iſt
8ccL	mein
8eeJ	.
=14	=14
4dd	Auf-
8ddL	-ent-
8ccJ	.
4b	-halt.
4r}	.
==	==
!!!AGN: Staende -, Jaeger - Lied
!!!ONB: ESAC (Essen Associative Code) Database: ERK3
!!!AMT: simple quadruple
!!!AIN: vox
!!!EED: Helmut Schaffrath
!!!EEV: 1.0
!!!GTL: Staendelieder (Berufslieder). 2. Jaegerlieder und Jaegerballaden.
!!!URL-scan: https://rosdok.uni-rostock.de/mcrviewer/recordIdentifier/rosdok_ppn745177999/iview2/phys_0316.iview2?x=-128.77276441889285&y=570.4876190572977&scale=0.5870222003877487&rotation=0&layout=singlePageLayout
!!!ENC: Anna Maria Matuszewska
!!!EEV: 2024/12/31
*-	*-
